X: 1   % ---- desafinado in F
T: Desafinado
C: A. Jobim
C: Chorus by Stan Getz
M: C|
L: 1/4
Q: "Bossa Nova"
K: F
z2 A<c-||"FM7"c2z2|C/D/E/F/ (3:2:2ED/ ^C//D//|"G711"F3-F/_D/|_D4|"Gm7" z4|"C7"A>G ^F/G/ (3A/B/=B/ |
"A07"c>_E E/DE/-|"D7b9"_E2zz/D/|"Gm7" cBA2|"A7b9"z/G/B2-B/A//G// |"D7" ^F/A/E/G/ ^F/D_E/-|"D7b9"_E4|
"G7b9"z2z/D/F/G/|_A3-A/G//F//|=B,4| _AG-"Gb7"G_B,|"FM7"A, z z2|z/A,/C/E/ G F/G/-|
"G711"G>F_D2-|_D z z2|"Gm7"z2 F/^C/D/E/|"C7" F/D/E/F/ G/A/B/=B/|"A07" d c/_E/-_E2|"D7b9"z2z/D/^C/D/|
"Gm7"c/Bc B/A/G/|"Eb9"B A/B/-B A/G//F//|"Dm7"A/GA G/F/E/|"B07"G/FG/-"E7"G>F|"AM7"E/A,/^F/E/ ^C<A,|"Ab7"z{_A,}F/_E/ C<_A,|
"G"z{G,D}E/D/ =B,/A,/B,/G,/-|"FM7" G,/A,/C/E/ "E7"GF/E/-|"AM7"E2z z/^C/|"Bbdim7"A,/^C/E/^F/ G2|"Bm7"^F3z/^c/-|"E7"(3^c/d/e/ c2-c/=B/|
"AM7"^G^F/E/ F<G|"Am7"=B/AE/ =C/DE/-|"Bm7"E2z/CE/|"E7"G/E/G E2|"CM7"zz/ G,/ C/E/ G-|"C#dim7"G>A G/F/E/F/|
"Dm7"G4 |"G7" E/D/^C/D/-D2|"Gm7"z2 (3D/_E/D/ ^C/D/|"A07"B=D"D7b9"^C/D/B|"Gm7"(3D/_E/D/ ^C/D/ .B.^C|"C7"=C/^C/A3|
"FM7"(3C/D/C/ =B,/C/G2-|G>F G/F/z/G/-|"G711"G F/_D/-_D2|z2z/AG/|"Gm7"A>G A/GA/-|"C7"AG ^F/G/ (3A/B/c/|
"A07"d/^c=c/-c>=B|"D7b9"_B2_E D/c/-|"Gm7"c2-c/BA//G//|"Bbm"Mc/B/A/G/ MB/A/G/F/|"Am7"A2 z/G/F/E/|"Abdim"G/F/E/D/ F/E/D/E/|
"G7"F4|=B,2F2-|"Bbm7"F3z/F/|"Eb9"cB_A/F/G/F/|"G7"=AF/D/=B,A|"C7"F/D/C/=B,/ _B,/AE/|
"F"G/FF/-F2||"Eb"z2z/_E/E/E/|"F"F4|"Eb"z2z/_E/E/E/|"F"F//C//_E/-E3|"Eb"z2z/_E/E/E/|"F"F4-|F4|]
